X:1
T:D minor              Jacob French, 1789
T:Charles Wesley, 1747 Redemption Hymns No. 30          77. 77. 77.                                     
T:Aspiration
T:Transcribed from  The New American Melody, 1789.
%%score [ 1 2 3 4 ]
L:1/8
Q:1/4=120
M:2/2
K:F
V:1 treble nm="Tr." snm="Tr."
V:2 treble nm="C." snm="C."
V:3 treble-8 nm="T." snm="T."
V:4 bass nm="B." snm="B."
V:1
 z8 | %1
"^1. Wea –ry world,  weary world, when will it end?  Destined  to the  pur–ging     fire!       Fain I would to heav'n ascend; Thi–ther–\n2.  O   cut    short      O cut short    the work  in me,  Make  a  speedy  end   of        sin,        Set   my  heart  at   li – ber –ty, Bring  the" A4 A4 | %2
 A8 | F2 F2 F4 | c4 B2 A2 | A4 A2 F2 | B2 A2 GB A2 | d6 z2 ||[Q:1/4=75]"^[Slower]" f4 c4 | A4 c4 | %10
 =B4 c4 ||[Q:1/4=120]"^[First tempo]" c4 c2 c2 | f2 c2 (d2 c2) | c2 c2 c4- | c4 A2 A2 | %15
 c2 A2 B2 B2 | A4 d2 ^c2 | d2 cB A2 d2 | ^c4 A2 A2 | B2 B2 A2 A2 | A8 |] %21
V:2
 z8 | z8 | z8 | %3
"^1. Weary world, when will it end?  Destined  to the  pur–ging     fire!       Fain I would to heav'n ascend; Thi–ther–\n2.  O  cut short    the work  in me,  Make  a  speedy  end   of        sin,        Set   my  heart  at   li – ber –ty, Bring  the" D2 D2 D4 | %4
 A4 G2 E2 | F4 F2 FE | D2 D2 E2 F>E | F6 z2 || A4 F4 | F4 F4 | G4 G4 || A4 A2 AG | %12
"^1. –ward my    heart          a  –  spires:          Savior, this is  not my place,  Let  me   die  to    see  thy    face,   Let me die to  see  thy  face.\n2. hea– venly  na      –      ture      in,           Seal  me to redemption’s day,  Bear my new-born soul  a–way,  Bear my new-born soul  away." FG A2 (B2 A2) | %13
 G4 A4- | A4 F2 F2 | F2 F2 F2 G2 | (F2 E2) F2 F2 | G2 GE F2 FD | E4 D2 F2 | E2 D2 ^C2 C2 | D8 |] %21
V:3
 z8 | z8 | %2
"^1. Wea – ry   world,          when will it end?  Destined  to the  pur–ging     fire!       Fain I would to heav'n ascend; Thi–ther–\n2.   O     cut    short             the work  in me,  Make  a  speedy  end   of        sin,        Set   my  heart  at   li – ber –ty, Bring  the" d4 d4 | %3
 A8 | f4 e2 ^c2 | d4 d2 A2 | G2 F2 E2 D2 | A6 z2 || c4 A4 | c4 A4 | d4 e4 || f4 f2 e2 | %12
 d2 ef (g2 f2) | e4 f4- | f4 c2 c2 | A2 A2 d2 d2 | ^c4 d2 A2 | B2 G2 c2 B2 | A4 F2 D2 | %19
 G2 F2 E2 E2 | D8 |] %21
V:4
"^1. Weary  world,    when will  it  end? \n2.  O  cut  short       the  work  in  me," D,4 D,4 | %1
 A,,8 | D,4 D,2 D,2 | D,8 | [F,,F,]4 [G,,G,]2 [A,,A,]2 | D,4 D,2 F,2 | G,2 A,2 B,G, A,2 | D,6 z2 || %8
 [F,,F,]4 [F,,F,]4 | [F,,F,]4 [A,,A,]4 | [G,,G,]4 C,4 || [F,,F,]4 [F,,F,]2 [A,,A,]2 | %12
 [B,,B,]2 [A,,A,]2 ([G,,G,]2 [A,,A,][B,,B,] | %13
"^______________________________________\nDynamic markings as suggested by Jones (2014)." [C,C]2) C,2 [F,,F,]4- | %14
 [F,,F,]4 [F,,F,]2 [F,,F,]2 | [F,,F,]2 [C,C]2 [B,,B,]2 [G,,G,]2 | [A,,A,]4 [B,,B,]2 [A,,A,]2 | %17
 [G,,G,]2 [E,,E,]2 [F,,F,]2 [D,,D,]2 | A,,4 D,2 D,2 | G,,2 G,,2 A,,2 A,,2 | D,8 |] %21

